X:1
T:Title
%%score { ( 1 3 ) | ( 2 4 ) }
L:1/8
Q:1/4=126
M:6/4
K:D
V:1 treble nm="Grand Piano"
V:3 treble 
V:2 bass 
V:4 bass 
V:1
 [FA]2 [=F^G]2 [^FA]2 [Fd]2 [Ac]2 [=GB]2 | [FA]6 F6 | G2 F2 G2 [GB]2 [FA]2 [EG]2 | [DF]12 | %4
w: John~J.~Thomas * * * * *||||
 [^DF]2 [D=F]2 [D^F]2 [DB]2 [DA]2 [DF]2 | [FA]6 z6 | ^G2 F2 G2 [GB]2 [Gc]2 [GB]2 | A12 | %8
w: ||||
 d2 c2 d2 c2 B2 c2 | B6 A6 | F2 C2 D2 F2 C2 D2 | G12 | e2 ^d2 e2 =d2 c2 d2 | c6 B6 | %14
w: ||||||
 A2 E2 F2 G2 F2 [CE]2 | F12 | d2 c2 d2 c2 B2 c2 | B6 A6 | F2 C2 D2 F2 C2 D2 | B12 | %20
w: ||||||
 B2 ^A2 B2 d2 c2 B2 | A6 ^G6 | z6 .e6 | d12 |] %24
w: ||||
V:2
 [D,D]2 [D,D]2 [D,D]2 [D,A,]2 [D,B,]2 [D,C]2 | [D,D]6 [D,A,D]6 | %2
 [A,CE]2 [A,C^D]2 [A,CE]2 [A,,A,]2 [B,,A,]2 [C,A,]2 | [D,A,]12 | %4
 [B,,A,]2 [B,,^G,]2 [B,,A,]2 [B,,F,]2 [B,,F,]2 [B,,B,]2 | .[E,B,]6 [E,B,E]6 | %6
 [E,B,D]2 [E,A,D]2 [E,B,D]2 [E,E]2 [E,E]2 [E,D]2 | [A,C]12 | %8
 [DFA]2 [CFA]2 [DFA]2 [CFA]2 [B,FA]2 [CFA]2 | [DF]2 D2 D2 [DF]2 D2 D2 | %10
 [D,A,D]2 [D,G,A,]2 [D,F,A,]2 [D,A,D]2 [D,G,A,]2 [D,F,A,]2 | z2 A,2 B,2 z2 B,2 A,2 | %12
 [EGB]2 [^DGB]2 [EGB]2 [=DGB]2 [CGB]2 [DGB]2 | [EG]2 E2 E2 [EG]2 E2 E2 | %14
 [A,CE]2 [G,A,C]2 [F,A,D]2 [E,B,D]2 [A,D]2 [A,,A,]2 | .[A,D]6 z6 | %16
 [DFA]2 [CFA]2 [DFA]2 [CFA]2 [B,FA]2 [CFA]2 | [DF]2 D2 D2 [DF]2 D2 D2 | %18
 [D,A,D]2 [D,G,A,]2 [D,F,A,]2 [D,A,D]2 [D,G,A,]2 [D,F,A,]2 | .G,6 z6 | %20
 [^G,D=F]2 [G,DF]2 [G,DF]2 [G,B,F]2 [G,CF]2 [G,DF]2 | [A,DF]6 [B,D=F]6 | %22
 [A,DF]2 [A,CF]2 [A,CF]2 .[A,CG]4[K:bass] A,2 | z2 C2 B,2 .A,6 |] %24
V:3
 x12 | x12 | x12 | x12 | x12 | z4 =C2 G6 | x12 | z6 .G6 | x12 | z2 F2 F2 z2 F2 F2 | x12 | %11
 z2 C2 D2 [CE]2 D2 C2 | x12 | z2 G2 G2 z2 G2 G2 | x12 | z2 D4- D6 | x12 | z2 F2 F2 z2 F2 F2 | x12 | %19
 z2 G2 [^DA]2 [EG]6 | x12 | x12 | A2 B2 A2 z2 B,2 [CGA]2 | [DF]2 A2 G2 .F6 |] %24
V:4
 x12 | x12 | x12 | x12 | x12 | x12 | x12 | x12 | x12 | B,6 A,6 | x12 | E,6 A,,6 | x12 | C6 B,6 | %14
 x12 | D,4- [D,-C]2 [D,-B,]2 [D,-A,]2 [D,F,]2 | x12 | B,6 A,6 | x12 | z2 D2 F,2 E,2 B,,2 E,2 | %20
 x12 | x12 | x10[K:bass] x2 | D,12 |] %24

